svgs/adguard_vpn.svg

<svg xmlns="http://www.w3.org/2000/svg" viewBox="0 0 192 192"><path d="M96 16.5a58.222 58.222 0 0 0-34.144 10.92 57.546 57.546 0 0 0-21.122 28.787 57.13 57.13 0 0 0 0 35.615 57.548 57.548 0 0 0 21.122 28.786A58.215 58.215 0 0 0 96 131.528a58.215 58.215 0 0 0 34.144-10.92 57.548 57.548 0 0 0 21.122-28.786 57.13 57.13 0 0 0 0-35.615 57.546 57.546 0 0 0-21.122-28.787A58.222 58.222 0 0 0 96 16.5Z" fill="none" stroke="#000" stroke-width="8" stroke-linecap="round" stroke-linejoin="round"/><path d="M70.651 67.773c-2.113 0-4.142.916-5.636 2.545-1.494 1.629-2.335 3.84-2.335 6.144 0 2.303.841 4.514 2.335 6.143 1.494 1.629 3.523 2.545 5.636 2.545s4.142-.916 5.636-2.545c1.494-1.629 2.334-3.84 2.334-6.143 0-2.304-.84-4.515-2.334-6.144-1.494-1.629-3.523-2.545-5.636-2.545Zm50.698 0c-2.113 0-4.142.916-5.636 2.545-1.494 1.629-2.334 3.84-2.334 6.144 0 2.303.84 4.514 2.334 6.143 1.494 1.629 3.523 2.545 5.636 2.545s4.142-.916 5.636-2.545c1.494-1.629 2.335-3.84 2.335-6.143 0-2.304-.841-4.515-2.335-6.144-1.494-1.629-3.523-2.545-5.636-2.545Z" fill="none" stroke="#000" stroke-width="8" stroke-linecap="round" stroke-linejoin="round"/><path d="M96 52.151c26.582 0 47.288 8.158 47.288 27.737 0 13.094-7.6 16.969-17.502 16.969-8.751 0-16.434-5.099-29.786-5.099s-21.035 5.099-29.786 5.099c-9.902 0-17.502-3.875-17.502-16.969 0-19.457 20.706-27.737 47.288-27.737Zm43.18 76.522c0 15.704-35.333 46.827-43.18 46.827-7.847 0-43.18-31.041-43.18-46.827" fill="none" stroke="#000" stroke-width="8" stroke-linecap="round" stroke-linejoin="round"/></svg>

<svg
    xmlns="http://www.w3.org/2000/svg"
    viewBox="0 0 192 192"
    id="vector">
    <path
        id="path"
        d="M 96 16.5 C 83.743 16.462 71.785 20.286 61.856 27.42 C 51.926 34.554 44.529 44.636 40.734 56.207 C 36.939 67.777 36.939 80.251 40.734 91.822 C 44.529 103.392 51.926 113.474 61.856 120.608 C 71.785 127.742 83.743 131.567 96 131.528 C 108.257 131.567 120.215 127.742 130.144 120.608 C 140.074 113.474 147.471 103.392 151.266 91.822 C 155.061 80.251 155.061 67.777 151.266 56.207 C 147.471 44.636 140.074 34.554 130.144 27.42 C 120.215 20.286 108.257 16.462 96 16.5 Z"
        fill="none"
        stroke="#000000"
        stroke-width="8"
        stroke-linecap="round"
        stroke-linejoin="round"/>
    <path
        id="path_1"
        d="M 70.651 67.773 C 68.538 67.773 66.509 68.689 65.015 70.318 C 63.521 71.947 62.68 74.158 62.68 76.462 C 62.68 78.765 63.521 80.976 65.015 82.605 C 66.509 84.234 68.538 85.15 70.651 85.15 C 72.764 85.15 74.793 84.234 76.287 82.605 C 77.781 80.976 78.621 78.765 78.621 76.462 C 78.621 74.158 77.781 71.947 76.287 70.318 C 74.793 68.689 72.764 67.773 70.651 67.773 Z M 121.349 67.773 C 119.236 67.773 117.207 68.689 115.713 70.318 C 114.219 71.947 113.379 74.158 113.379 76.462 C 113.379 78.765 114.219 80.976 115.713 82.605 C 117.207 84.234 119.236 85.15 121.349 85.15 C 123.462 85.15 125.491 84.234 126.985 82.605 C 128.479 80.976 129.32 78.765 129.32 76.462 C 129.32 74.158 128.479 71.947 126.985 70.318 C 125.491 68.689 123.462 67.773 121.349 67.773 Z"
        fill="none"
        stroke="#000000"
        stroke-width="8"
        stroke-linecap="round"
        stroke-linejoin="round"/>
    <path
        id="path_2"
        d="M 96 52.151 C 122.582 52.151 143.288 60.309 143.288 79.888 C 143.288 92.982 135.688 96.857 125.786 96.857 C 117.035 96.857 109.352 91.758 96 91.758 C 82.648 91.758 74.965 96.857 66.214 96.857 C 56.312 96.857 48.712 92.982 48.712 79.888 C 48.712 60.431 69.418 52.151 96 52.151 Z M 139.18 128.673 C 139.18 144.377 103.847 175.5 96 175.5 C 88.153 175.5 52.82 144.459 52.82 128.673"
        fill="none"
        stroke="#000000"
        stroke-width="8"
        stroke-linecap="round"
        stroke-linejoin="round"/>
</svg>
